src/images/springernature-logo.svg

<svg width="168" height="118" viewBox="0 0 168 118" fill="none" xmlns="http://www.w3.org/2000/svg">
<path d="M19.2352 57.4586C18.2192 56.9802 17.3416 56.568 17.3416 55.7701C17.3416 55.1159 17.7648 54.4553 18.708 54.4553C19.3928 54.4553 20.2048 54.683 21.2624 55.1718L22.316 53.0631C21.0928 52.3475 19.8392 52 18.484 52C15.8544 52 14.2848 53.4162 14.2848 55.7868C14.2848 58.1575 16.1208 59.0721 17.596 59.8085C18.6664 60.3421 19.5904 60.8037 19.5904 61.6728C19.5904 62.422 18.9248 62.9252 17.9352 62.9252C17.1416 62.9252 16.1728 62.6337 15.0544 62.0562L14 64.315C15.4136 65.1193 16.7048 65.478 18.1808 65.478C20.912 65.478 22.5432 63.9604 22.5432 61.418C22.5432 59.0138 20.7088 58.1511 19.2352 57.4586ZM28.0464 53.5168C26.9032 53.5168 25.1832 53.5168 24.1912 53.5504V65.2232H27.092V61.6624H27.9736C29.2936 61.6624 32.3648 61.2359 32.3648 57.2805C32.3648 54.8531 30.8312 53.5168 28.0464 53.5168ZM27.9552 59.4714C27.5904 59.4714 27.3496 59.4714 27.1288 59.4531L27.0912 59.4499V55.7261L27.1288 55.7237C27.3856 55.7062 27.7216 55.7062 27.9904 55.7062C29.3328 55.7062 29.6024 56.4801 29.6024 57.7286C29.604 58.9347 29.0952 59.4714 27.9552 59.4714ZM40.7825 60.7055L40.8113 60.6839C41.7785 59.9123 42.3113 58.7182 42.3113 57.322C42.3113 54.516 39.9177 53.5168 37.6769 53.5168C36.5337 53.5168 34.8129 53.5168 33.8225 53.5504V65.2232H36.7233V61.6624H37.6049C37.7809 61.6624 37.9473 61.6528 38.1001 61.6432L38.1241 61.6408L38.1369 61.6608C38.6185 62.4316 39.2321 63.6728 39.4297 65.2232C40.0657 65.2232 42.6033 65.2232 42.6033 65.2232C42.3345 63.4388 41.3617 61.6472 40.8025 60.7351L40.7825 60.7055ZM37.5857 59.4714C37.2209 59.4714 36.9809 59.4714 36.7601 59.4547L36.7225 59.4515V55.7277L36.7601 55.7253C37.0169 55.707 37.3529 55.707 37.6217 55.707C38.9641 55.707 39.2337 56.4817 39.2337 57.731C39.2337 58.9347 38.7257 59.4714 37.5857 59.4714ZM44.4377 65.2232L47.3353 65.2248V53.5352H44.4377V65.2232ZM56.5297 61.1831L53.0561 53.5344H49.8849V65.2224H52.4377V57.8492L56.0401 65.2224H59.0969V53.5344H56.5297V61.1831ZM66.0801 60.8253H67.2873V63.2135L67.2601 63.2231C66.9689 63.3278 66.2737 63.3829 65.9841 63.3829C64.4521 63.3829 63.8545 62.2495 63.8545 59.3396C63.8545 56.7837 64.7361 55.5408 66.5497 55.5408C67.1553 55.5408 68.0393 55.8116 68.9809 56.2853L69.7665 54.3363C68.7137 53.6734 67.3433 53.278 66.0929 53.278C64.3345 53.278 63.0673 53.7724 62.2177 54.79C61.3753 55.8004 60.9649 57.2997 60.9649 59.374C60.9649 63.9037 62.2809 65.5874 65.8177 65.5874C66.9441 65.5874 68.6401 65.2951 69.9033 64.6425V58.8324H66.0801V60.8253ZM74.6578 60.3764H78.4186V58.1168H74.6578V55.8124H78.765V53.5344H71.8825V63.1552C71.8825 63.1656 71.8657 64.0802 72.4706 64.7064C72.8482 65.0986 73.3874 65.2983 74.0722 65.3023C76.1826 65.3142 78.4938 65.2368 78.8194 65.2248V62.942H74.657L74.6578 60.3764ZM87.933 60.7358L87.9138 60.7055L87.9426 60.6839C88.9098 59.9123 89.4426 58.7182 89.4426 57.322C89.4426 54.516 87.049 53.5168 84.809 53.5168C83.6658 53.5168 81.945 53.5168 80.9546 53.5504V65.2232H83.8554V61.6624H84.737C84.913 61.6624 85.0786 61.6528 85.2322 61.6432L85.2562 61.6408L85.269 61.6608C85.7506 62.4316 86.3642 63.6728 86.5618 65.2232C87.1978 65.2232 89.7354 65.2232 89.7354 65.2232C89.465 63.4396 88.4922 61.648 87.933 60.7358ZM84.717 59.4714C84.3522 59.4714 84.1122 59.4714 83.8914 59.4547L83.8538 59.4515V55.7277L83.8914 55.7253C84.1482 55.707 84.4842 55.707 84.753 55.707C86.0954 55.707 86.3658 56.4817 86.3658 57.731C86.3658 58.9347 85.8578 59.4714 84.717 59.4714Z" fill="#1A2D59"/>
<path d="M101.322 61.2614L97.0556 52.1198H93.6716V65.2232H96.334L96.3348 56.1806L100.568 65.2232H103.999V52.1198H101.322V61.2614ZM115.931 55.917H118.544V65.2232H121.567V55.917H123.794V53.5336H115.931V55.917ZM131.44 61.3181C131.44 62.5146 131.372 63.2471 130.037 63.2471C128.758 63.2471 128.542 62.6464 128.542 61.3005V53.5344H125.539V61.4579C125.539 64.2463 126.887 65.4899 129.909 65.4899C133.003 65.4899 134.444 64.0754 134.444 61.0377V53.5344H131.44V61.3181ZM149.837 62.942V60.3756H153.597V58.1159H149.837V55.8116H153.945V53.5344H147.063V63.1552C147.063 63.1656 147.046 64.0802 147.651 64.7064C148.029 65.0986 148.568 65.2982 149.253 65.3022C151.362 65.3142 153.674 65.2367 154 65.2248V62.942H149.837ZM108.501 53.5344L105.666 65.2232H108.625L109.042 63.3669H112.286L112.703 65.2232H115.824L113.025 53.5344C113.025 53.5344 108.501 53.5344 108.501 53.5344ZM109.384 61.1584L110.589 56.0752H110.71L111.944 61.1584H109.384ZM143.549 60.7055L143.577 60.6839C144.543 59.9123 145.077 58.7182 145.077 57.322C145.077 54.516 142.683 53.5168 140.442 53.5168C139.299 53.5168 137.578 53.5168 136.588 53.5503V65.2232H139.489V61.6624H140.37C140.546 61.6624 140.712 61.6528 140.865 61.6432L140.889 61.6408L140.902 61.6608C141.384 62.4316 141.997 63.6728 142.196 65.2232C142.831 65.2232 145.369 65.2232 145.369 65.2232C145.101 63.4388 144.128 61.6472 143.569 60.735L143.549 60.7055ZM140.353 59.4714C139.988 59.4714 139.748 59.4714 139.526 59.4546L139.489 59.4514V55.7277L139.526 55.7253C139.783 55.7069 140.118 55.7069 140.388 55.7069C141.73 55.7069 142 56.4817 142 57.731C142.001 58.9347 141.493 59.4714 140.353 59.4714Z" fill="#DB1830"/>
</svg>

<?xml version="1.0" encoding="UTF-8"?>
<svg id="Layer_1" xmlns="http://www.w3.org/2000/svg" version="1.1" viewBox="0 0 168 118">
  <!-- Generator: Adobe Illustrator 30.2.1, SVG Export Plug-In . SVG Version: 2.1.1 Build 1)  -->
  <defs>
    <style>
      .st0 {
        fill: #e3e3e3;
      }
    </style>
  </defs>
  <path class="st0" d="M19.24,57.46c-1.02-.48-1.89-.89-1.89-1.69,0-.65.42-1.31,1.37-1.31.68,0,1.5.23,2.55.72l1.05-2.11c-1.22-.72-2.48-1.06-3.83-1.06-2.63,0-4.2,1.42-4.2,3.79s1.84,3.29,3.31,4.02c1.07.53,1.99,1,1.99,1.86,0,.75-.67,1.25-1.66,1.25-.79,0-1.76-.29-2.88-.87l-1.05,2.26c1.41.8,2.7,1.16,4.18,1.16,2.73,0,4.36-1.52,4.36-4.06,0-2.4-1.83-3.27-3.31-3.96ZM28.05,53.52c-1.14,0-2.86,0-3.86.03v11.67h2.9v-3.56h.88c1.32,0,4.39-.43,4.39-4.38,0-2.43-1.53-3.76-4.32-3.76ZM27.96,59.47c-.36,0-.61,0-.83-.02h-.04v-3.73h.04c.26-.02.59-.02.86-.02,1.34,0,1.61.77,1.61,2.02,0,1.21-.51,1.74-1.65,1.74ZM40.78,60.71l.03-.02c.97-.77,1.5-1.97,1.5-3.36,0-2.81-2.39-3.81-4.63-3.81-1.14,0-2.86,0-3.85.03v11.67h2.9v-3.56h.88c.18,0,.34,0,.5-.02h.02s.01.02.01.02c.48.77,1.1,2.01,1.29,3.56h3.17c-.27-1.78-1.24-3.58-1.8-4.49l-.02-.03ZM37.59,59.47c-.36,0-.6,0-.83-.02h-.04v-3.73h.04c.26-.02.59-.02.86-.02,1.34,0,1.61.77,1.61,2.02s-.51,1.74-1.65,1.74ZM44.44,65.22h2.9s0-11.69,0-11.69h-2.9v11.69ZM56.53,61.18l-3.47-7.65h-3.17v11.69h2.55v-7.37l3.6,7.37h3.06v-11.69h-2.57v7.65ZM66.08,60.83h1.21v2.39h-.03c-.29.11-.99.17-1.28.17-1.53,0-2.13-1.13-2.13-4.04,0-2.56.88-3.8,2.7-3.8.61,0,1.49.27,2.43.74l.79-1.95c-1.05-.66-2.42-1.06-3.67-1.06-1.76,0-3.03.49-3.88,1.51-.84,1.01-1.25,2.51-1.25,4.58,0,4.53,1.32,6.21,4.85,6.21,1.13,0,2.82-.29,4.09-.94v-5.81h-3.82v1.99ZM74.66,60.38h3.76v-2.26h-3.76v-2.3h4.11v-2.28h-6.88v9.62s-.02.92.59,1.55c.38.39.92.59,1.6.6,2.11.01,4.42-.07,4.75-.08v-2.28h-4.16v-2.57ZM87.93,60.74l-.02-.03.03-.02c.97-.77,1.5-1.97,1.5-3.36,0-2.81-2.39-3.81-4.63-3.81-1.14,0-2.86,0-3.85.03v11.67h2.9v-3.56h.88c.18,0,.34,0,.5-.02h.02s.01.02.01.02c.48.77,1.1,2.01,1.29,3.56h3.17c-.27-1.78-1.24-3.58-1.8-4.49ZM84.72,59.47c-.36,0-.6,0-.83-.02h-.04v-3.73h.04c.26-.02.59-.02.86-.02,1.34,0,1.61.77,1.61,2.02s-.51,1.74-1.65,1.74Z"/>
  <path class="st0" d="M101.32,61.26l-4.27-9.14h-3.38v13.1h2.66v-9.04s4.23,9.04,4.23,9.04h3.43v-13.1h-2.68v9.14ZM115.93,55.92h2.61v9.31h3.02v-9.31h2.23v-2.38h-7.86v2.38ZM131.44,61.32c0,1.2-.07,1.93-1.4,1.93s-1.49-.6-1.49-1.95v-7.77h-3v7.92c0,2.79,1.35,4.03,4.37,4.03s4.54-1.41,4.54-4.45v-7.5h-3v7.78ZM149.84,62.94v-2.57h3.76v-2.26h-3.76v-2.3h4.11v-2.28h-6.88v9.62s-.02.92.59,1.55c.38.39.92.59,1.6.6,2.11.01,4.42-.07,4.75-.08v-2.28h-4.16ZM108.5,53.53l-2.83,11.69h2.96l.42-1.86h3.24l.42,1.86h3.12l-2.8-11.69h-4.52ZM109.38,61.16l1.2-5.08h.12l1.23,5.08h-2.56ZM143.55,60.71l.03-.02c.97-.77,1.5-1.97,1.5-3.36,0-2.81-2.39-3.81-4.63-3.81-1.14,0-2.86,0-3.85.03v11.67h2.9v-3.56h.88c.18,0,.34,0,.5-.02h.02s.01.02.01.02c.48.77,1.1,2.01,1.29,3.56h3.17c-.27-1.78-1.24-3.58-1.8-4.49l-.02-.03ZM140.35,59.47c-.36,0-.6,0-.83-.02h-.04v-3.73h.04c.26-.02.59-.02.86-.02,1.34,0,1.61.77,1.61,2.02,0,1.2-.51,1.74-1.65,1.74Z"/>
</svg>
